app/img/mainPage/iconHelp.svg

<svg width="15" height="14" viewBox="0 0 15 14" fill="none" xmlns="http://www.w3.org/2000/svg">
<path d="M14.5288 5.93541L8.56064 0.365082C8.3012 0.122833 8.03604 0 7.77271 0C7.4073 0 6.98055 0.2556 6.98055 0.975723V4.41025C5.15888 4.52603 3.46401 5.2485 2.169 6.46979C0.770302 7.7888 0 9.53731 0 11.3932C0 12.1925 0.143738 12.9776 0.427437 13.7266C0.489464 13.8904 0.655518 14 0.841713 14C1.02802 14 1.19396 13.8904 1.2561 13.7266C2.1286 11.4226 4.39487 9.81673 6.98055 9.62607V13.0242C6.98055 13.7443 7.40719 13.9999 7.77271 13.9999C8.03604 13.9999 8.30109 13.8772 8.56052 13.635L14.529 8.06448C14.8327 7.7809 15 7.40289 15 6.99989C14.9999 6.597 14.8326 6.21889 14.5288 5.93541ZM13.9074 7.4845L7.93911 13.055C7.91096 13.0812 7.88589 13.1021 7.86415 13.1187C7.86118 13.0926 7.85934 13.0613 7.85934 13.0243V9.19722C7.85934 9.08774 7.81242 8.98264 7.72888 8.90562C7.6466 8.82968 7.53559 8.78706 7.41989 8.78706C7.41829 8.78706 7.41669 8.78717 7.41508 8.78717C5.84999 8.80341 4.35539 9.26515 3.09288 10.1223C2.20848 10.7228 1.4851 11.4831 0.959129 12.3577C0.9058 12.0401 0.878906 11.7181 0.878906 11.3932C0.878906 8.02368 3.81535 5.25192 7.42481 5.21443C7.6656 5.21198 7.85946 5.02911 7.85946 4.80428V0.975723C7.85946 0.93866 7.86129 0.907471 7.86415 0.881302C7.88589 0.897858 7.91096 0.918793 7.93911 0.945068L13.9074 6.5155C14.0452 6.6441 14.1211 6.81607 14.1211 7C14.121 7.18382 14.0451 7.3559 13.9074 7.4845Z" fill="#6BB6E4"/>
</svg>

<svg width="15" height="14" fill="none" xmlns="http://www.w3.org/2000/svg"><path d="M14.529 5.935 8.56.365C8.3.123 8.036 0 7.773 0c-.366 0-.792.256-.792.976V4.41c-1.822.116-3.517.838-4.812 2.06C.77 7.789 0 9.537 0 11.393c0 .8.144 1.585.427 2.334A.439.439 0 0 0 .842 14c.186 0 .352-.11.414-.273.873-2.304 3.139-3.91 5.725-4.1v3.397c0 .72.426.976.792.976.263 0 .528-.123.788-.365l5.968-5.57C14.833 7.78 15 7.402 15 7c0-.403-.167-.781-.471-1.065Zm-.622 1.55-5.968 5.57a1.013 1.013 0 0 1-.075.064.84.84 0 0 1-.005-.095V9.197a.397.397 0 0 0-.13-.291.456.456 0 0 0-.31-.119h-.004a7.808 7.808 0 0 0-4.322 1.335 7.18 7.18 0 0 0-2.134 2.236 5.819 5.819 0 0 1-.08-.965c0-3.37 2.936-6.141 6.546-6.179.24-.002.434-.185.434-.41V.976c0-.037.002-.069.005-.095a.987.987 0 0 1 .075.064l5.968 5.57a.658.658 0 0 1 0 .97Z" fill="#6BB6E4"/></svg>
